X: 1358
T: Merzifon Karşılaması
C: Nejat Buhara
O: Turkey
F: http://compmusic.upf.edu/node/140
N: nihavent--karsilama--sofyan----merzifon
N: makam= nihavent
N: form= karsilama
N: usul= sofyan = 4/4
M: 4/4
L: 1/16
K: C _B _e  
Q: 1/4=102
%%MIDI tuningsystem comma53
G2dd =Bcd2 e3/2d/cd Bcd2  | =Bcd2 Bcd2 e3/2d/cd Bcd2  | 
w:   |   | 
G2dd =Bcd2 e3/2d/cd Bcd2  | =Bcd2 Bcd2 e3/2d/cd Bcd2  | 
w:   |   | 
z2gg g^fed e3/2d/cd =Bcd2  | zgga g^fed edcd =Bcd=e  | 
w:   |   | 
f2ff fff2 ffff f2fg  | =e2eg f2fg eeeg f2fg  | 
w:   |   | 
z2gg g^fed e3/2d/cd =Bcd2  | zgga g^fed e3/2d/cd =Bcd2  | 
w:   |   | 
G2dd =Bcd2 e3/2d/cd Bcd2  | =Bcd2 Bcd2 e3/2d/cd Bcd2  | 
w:   |   | 
G2dd =Bcd2 e3/2d/cd Bcd2  | =Bcd2 Bcd2 e3/2d/cd Bcd2  | 
w:   |   | 
z2gg g^fed e3/2d/cd =Bcd2  | zgga g^fed edcd =Bcd=e  | 
w:   |   | 
f2ff fff2 ffff f2fg  | =e2eg f2fg eeeg f2fg  | 
w:   |   | 
z2gg g^fed e3/2d/cd =Bcd2  | zgga g^fed e3/2d/cd =Bcd2  | 
w:   |   | 
de^fg fgag a2aa aaa2  | a2aa aaa2 b3/2a/ga ^fga2  | 
w:   |   | 
^fga2 fga2 b3/2a/ga fga2  | ^fga2 fga2 b3/2a/ga fga2  | 
w:   |   | 
zg/^f/ga gfed edcd =Bcd2  | g^fga gfed e3/2d/cd =Bcd2  | 
w:   |   | 
=Bcd2 Bcd2 e3/2d/cd Bcd2  | =Bcd2 Bcd2 e3/2d/cd Bcd2  | 
w:   |   | 
z2gg g^fed e3/2d/cd =Bcd2  | ggga g^fed e3/2d/cd =Bcd2  | 
w:   |   | 
=Bcd2 Bcd2 e3/2d/cd Bcd2  | =Bcd2 Bcd2 e3/2d/cd Bcd2  | 
w:   |   | 
z2gg g^fed e3/2d/cd =Bcd2  | ggga g^fed e3/2d/cd =Bcd2  | 
w:   |   | 
de^fg fgag a2aa aaa2  | abag ^fga2 abag fga2  | 
w:   |   | 
a_2/4bc'b c'bc'a a3/2_b/ag ^fga2  | \
w:   | 
a3/2_2/4b/c'b c'bc'd' a_bag ^fga2  | 
w:   | 
a_2/4bc'b c'bc'd' a_bag ^fgab  | ab2b bbb2 b4 b2bc'  | 
w:   |   | 
a2ac' b2bc' a2ac' b2bc'  | a2ab g2ga ^f2fg e2d2  | 
w:   |   | 
c'_2/4bc'd' _b3/2a/bc' a3/2g/ab g3/2^f/ga  | \
w:   | 
^f3/2e/fg e2d2 e3/2d/cd =Bcd2  | 
w:   | 
G2dd =Bcd2 e3/2d/cd Bcd2  | =Bcd2 Bcd2 e3/2d/cd Bcd2  | 
w:   |   | 
G2dd =Bcd2 e3/2d/cd Bcd2  | =Bcd2 Bcd2 e3/2d/cd Bcd2  | 
w:   |   | 
z2gg g^fed e3/2d/cd =Bcd2  | zgga g^fed edcd =Bcd=e  | 
w:   |   | 
f2ff fff2 ffff f2fg  | =e2eg f2fg eeeg f2fg  | 
w:   |   | 
z2gg g^fed e3/2d/cd =Bcd2  | zgga g^fed e3/2d/cd =Bcd2  | 
w:   |   | 
G2dd =Bcd2 e3/2d/cd Bcd2  | =Bcd2 Bcd2 e3/2d/cd Bcd2  | 
w:   |   | 
G2dd =Bcd2 e3/2d/cd Bcd2  | =Bcd2 Bcd2 e3/2d/cd Bcd2  | 
w:   |   | 
z2gg g^fed e3/2d/cd =Bcd2  | zgga g^fed edcd =Bcd=e  | 
w:   |   | 
f2ff fff2 ffff f2fg  | =e2eg f2fg eeeg f2fg  | 
w:   |   | 
z2gg g^fed e3/2d/cd =Bcd2  | zgga g^fed e3/2d/cd =Bcd2  | 
w:   |   | 
|


